X:5085
T:Farley Shot of Her. JB.71
T:Fairly Shot of Her,aka. JB.71
M:6/8
L:1/8
Q:120
S:James Biggins MS, Leeds, 1779.
R:Jig
O:England
A:Yorkshire
Z:
Z:vmp.Nick Barber & Chris Partingto
K:G
G2EG2E|G2B BGE|G2EG2E|D2A AFD|!
G2EG2E|G2B BGB|c2e dBG|D2A AFD|!
|GAB BAB|G2B BGE|GAB BGB|D2A AFD|!
GAB BAB|Gdc BGB|c2e dBG|D2A AFD|!
|Ggf gdB|G2B BGE|Ggf gdB|D2A AFD|!
Ggf gdB|def gdB|cac BgB|D2A AFD|]
% Output from ABC2Win  Version 2.1 h on 15/05/2000
